X:418
T:King of the Cattie,The. RH.418
R:jig
S:Rev.R.Harrison’s MS,c1815,Cumbria
O:England
A:Temple Sowerby,Cumbria
Z:vmp.Simon Wilson. Review PJH, 2008.
M:6/8
L:1/8
Q:3/8=120
K:G
d|dBd cAc|Bcd efg|ded dcB|A2A ABc|!
dBd cAc|Bcd efg|ded cBA|GGG G2:|!
|:B|BGB BGB|cAc cAc|ded dcB|A2A AAB|!
BGB BGB|cAc cAc|ded cBA|GGG G2:|

